.local/share/icons/Gruvbox-Plus-Dark/panel/24/kazam-countdown.svg

<svg xmlns="http://www.w3.org/2000/svg" width="24" height="24" version="1">
 <defs>
  <style id="current-color-scheme" type="text/css">
   .ColorScheme-Text { color:#ebdbb2; } .ColorScheme-Highlight { color:#458588; }
  </style>
 </defs>
 <path style="fill:currentColor" class="ColorScheme-Text" d="M 4.1816406,6 C 3.5269406,6 3,6.5344188 3,7.1992188 V 16.800781 C 3,17.465781 3.5269406,18 4.1816406,18 H 14.818359 C 15.473359,18 16,17.465781 16,16.800781 V 14 l 5,2 V 8 l -5,2 V 7.1992188 C 16,6.5344188 15.473359,6 14.818359,6 Z M 9,8 a 4,4 0 0 1 4,4 4,4 0 0 1 -4,4 4,4 0 0 1 -4,-4 4,4 0 0 1 4,-4 z m 0,1 a 3,3 0 0 0 -3,3 3,3 0 0 0 3,3 3,3 0 0 0 3,-3 3,3 0 0 0 -3,-3 z"/>
</svg>

<svg width="24" height="24" version="1.1" xmlns="http://www.w3.org/2000/svg">
  <defs>
    <style id="current-color-scheme" type="text/css">.ColorScheme-Text { color:#ebdbb2; } .ColorScheme-Highlight { color:#458588; } .ColorScheme-NeutralText { color:#fe8019; } .ColorScheme-PositiveText { color:#689d6a; } .ColorScheme-NegativeText { color:#fb4934; }</style>
  </defs>
  <path class="ColorScheme-Text" d="m4.182 6c-0.6547 0-1.182 0.5344-1.182 1.199v9.602c0 0.665 0.5269 1.199 1.182 1.199h10.64c0.655 0 1.182-0.5342 1.182-1.199v-2.801l5 2v-8l-5 2v-2.801c0-0.6648-0.5266-1.199-1.182-1.199zm4.818 2a4 4 0 0 1 4 4 4 4 0 0 1-4 4 4 4 0 0 1-4-4 4 4 0 0 1 4-4zm0 1a3 3 0 0 0-3 3 3 3 0 0 0 3 3 3 3 0 0 0 3-3 3 3 0 0 0-3-3z" fill="currentColor"/>
</svg>
